src/assets/outline/Flash.svg

<svg width="24" height="24" viewBox="0 0 24 24"  xmlns="http://www.w3.org/2000/svg">
<path d="M13.57 22.3801C13.34 22.3801 13.11 22.3401 12.89 22.2601C12.14 21.9801 11.66 21.2801 11.66 20.4801V14.0301H9.31997C8.55997 14.0301 7.89996 13.6001 7.58996 12.9101C7.27996 12.2201 7.39996 11.4401 7.89996 10.8701L15.47 2.27006C16 1.67006 16.82 1.46006 17.57 1.75006C18.32 2.03006 18.7999 2.73006 18.7999 3.53006V9.98006H21.14C21.9 9.98006 22.56 10.4101 22.87 11.1001C23.18 11.7901 23.06 12.5701 22.56 13.1401L14.99 21.7401C14.62 22.1601 14.1 22.3801 13.57 22.3801ZM16.88 3.12006C16.79 3.12006 16.68 3.15006 16.59 3.26006L9.01995 11.8701C8.85995 12.0501 8.91997 12.2301 8.94997 12.3001C8.97997 12.3701 9.07997 12.5401 9.31997 12.5401H12.41C12.82 12.5401 13.16 12.8801 13.16 13.2901V20.4901C13.16 20.7401 13.34 20.8401 13.42 20.8701C13.5 20.9001 13.6999 20.9501 13.8599 20.7601L21.43 12.1501C21.59 11.9701 21.53 11.7901 21.5 11.7201C21.47 11.6501 21.37 11.4801 21.13 11.4801H18.04C17.63 11.4801 17.29 11.1401 17.29 10.7301V3.53006C17.29 3.28006 17.11 3.18006 17.03 3.15006C17 3.13006 16.94 3.12006 16.88 3.12006Z" />
<path d="M8.5 4.75H1.5C1.09 4.75 0.75 4.41 0.75 4C0.75 3.59 1.09 3.25 1.5 3.25H8.5C8.91 3.25 9.25 3.59 9.25 4C9.25 4.41 8.91 4.75 8.5 4.75Z" />
<path d="M7.5 20.75H1.5C1.09 20.75 0.75 20.41 0.75 20C0.75 19.59 1.09 19.25 1.5 19.25H7.5C7.91 19.25 8.25 19.59 8.25 20C8.25 20.41 7.91 20.75 7.5 20.75Z" />
<path d="M4.5 12.75H1.5C1.09 12.75 0.75 12.41 0.75 12C0.75 11.59 1.09 11.25 1.5 11.25H4.5C4.91 11.25 5.25 11.59 5.25 12C5.25 12.41 4.91 12.75 4.5 12.75Z" />
</svg>

<?xml version="1.0" encoding="UTF-8"?>
<svg width="24" height="24" viewBox="0 0 24 24" xmlns="http://www.w3.org/2000/svg">
 <path d="m13.57 22.38c-0.23 0-0.46-0.04-0.68-0.12-0.75-0.28-1.23-0.98-1.23-1.78v-6.45h-2.34c-0.76 0-1.42-0.43-1.73-1.12s-0.19-1.47 0.31-2.04l7.57-8.6c0.53-0.6 1.35-0.81 2.1-0.52 0.75 0.28 1.2299 0.98 1.2299 1.78v6.45h2.3401c0.76 0 1.42 0.43004 1.73 1.12s0.19 1.47-0.31 2.04l-7.57 8.6c-0.37 0.42-0.89 0.64-1.42 0.64zm3.31-19.26c-0.09 0-0.2 0.03-0.29 0.14l-7.57 8.61c-0.16 0.18-0.09998 0.36-0.06998 0.43s0.13 0.24 0.37 0.24h3.09c0.41 0 0.75 0.34 0.75 0.75v7.2c0 0.25 0.18 0.35 0.26 0.38s0.2799 0.08 0.4399-0.11l7.5701-8.61c0.16-0.18 0.1-0.36 0.07-0.43s-0.13-0.24-0.37-0.24h-3.09c-0.41 0-0.75-0.34-0.75-0.75v-7.2c0-0.25-0.18-0.35-0.26-0.38-0.03-0.02-0.09-0.03-0.15-0.03z"/>
 <path d="m8.5 4.75h-7c-0.41 0-0.75-0.34-0.75-0.75s0.34-0.75 0.75-0.75h7c0.41 0 0.75 0.34 0.75 0.75s-0.34 0.75-0.75 0.75z"/>
 <path d="m7.5 20.75h-6c-0.41 0-0.75-0.34-0.75-0.75s0.34-0.75 0.75-0.75h6c0.41 0 0.75 0.34 0.75 0.75s-0.34 0.75-0.75 0.75z"/>
 <path d="m4.5 12.75h-3c-0.41 0-0.75-0.34-0.75-0.75s0.34-0.75 0.75-0.75h3c0.41 0 0.75 0.34 0.75 0.75s-0.34 0.75-0.75 0.75z"/>
</svg>
